X: 30101
T: Olahos
R: polka
M: 2/4
K: Bminor
|:ed c>B|AB G2|1 AA GA|B2 B2:|2 EF G<F|E4||
|:AA B>A|GG D2|AA G<A|B2 B2|
ed cB|AB G2|EF G<F|1 E2 E2:|2 E4||

